X:1
T:Title
L:1/8
Q:1/4=100
M:4/4
K:Eb
V:1 treble nm="Church Organ, Staff"
V:1
 E2 ED EF G2 | B2 c2 c2 B2 | B2 AG Bc d2 | d2 d6 | cB B2 e2 d2 | c2 BA G2 F2 | A2 G2 FEDE | %7
w: By~Old~Cornish~Melody * * * * *|||||||
 F2 E6- | E2 z2 z4 |] %9
w: ||

